X:875
T: My Love is Such a Fair One
T: Is \'Alainn go Deo mo Ghr\'asa
S: B.Breathnach:"Ceol Rince na hEireann" IV/176
Z: B.Black
L: 1/8
M: 4/4
R: reel
K: G
GE|DEGA BGGA|BGGBAEEG|DEGA BGGB|cABG EG D2|
DEGA BGGA|BGGBAEEG|DEGA BGGB|dBcA BG G2 ||
Bddg ecce|dBBd eAAc|Bddg ecce|gdBG AGED|
Bddg ecce|dBGB cAAF|DEGA BGGB|dBcA BG G2 ||
